wp-content/themes/CandyPress/dist/img/404/404.svg

<svg width="388" height="154" viewBox="0 0 388 154" fill="none" xmlns="http://www.w3.org/2000/svg">
<path d="M99.3391 127.68V149.07H59.2891V127.68V126.18H57.7891H1.53906V97.0659L65.5081 4.01999H99.3391V94.5V96H100.839H117.609V126.18H100.839H99.3391V127.68ZM57.7891 96H59.2891V94.5V68.07V63.0703V57.9727L56.5281 62.2579L36.278 93.6876L34.7881 96H37.5389H57.7891ZM234.175 20.4402L234.18 20.4464C243.837 32.9606 248.777 51.2719 248.777 75.6C248.777 100.061 243.84 118.812 234.159 132.04C224.54 145.046 210.667 151.59 192.317 151.59C174.114 151.59 160.235 145.05 150.472 132.037C140.792 118.808 135.857 100.127 135.857 75.81C135.857 51.3395 140.798 32.9594 150.455 20.4464C160.211 7.84598 174.093 1.5 192.317 1.5C210.687 1.5 224.562 7.84927 234.175 20.4402ZM205.264 108.277L205.268 108.266C207.892 101.414 209.147 90.538 209.147 75.81C209.147 61.0987 207.897 50.4714 205.251 44.1508C203.924 40.9805 202.197 38.4832 200.013 36.7758C197.808 35.0517 195.22 34.2 192.317 34.2C189.414 34.2 186.826 35.0517 184.621 36.7758C182.437 38.4832 180.71 40.9805 179.383 44.1508C176.738 50.4714 175.487 61.0987 175.487 75.81C175.487 90.538 176.742 101.414 179.366 108.266L179.37 108.277C180.689 111.647 182.405 114.304 184.582 116.126C186.786 117.969 189.387 118.89 192.317 118.89C195.247 118.89 197.848 117.969 200.052 116.126C202.229 114.304 203.945 111.647 205.264 108.277ZM334.144 4.01999H367.975V94.5V96H369.475H386.245V126.18H369.475H367.975V127.68V149.07H327.925V127.68V126.18H326.425H270.175V97.0659L334.144 4.01999ZM326.425 96H327.925V94.5V64.5567V59.6114L325.178 63.7234L305.173 93.6667L303.614 96H306.42H326.425Z" stroke="#73DDCF" stroke-width="3"/>
</svg>

<svg width="388" height="154" fill="none" xmlns="http://www.w3.org/2000/svg"><path d="M99.34 127.68v21.39H59.29v-22.89H1.54V97.066L65.507 4.02H99.34V96h18.27v30.18H99.34v1.5zM57.79 96h1.5V57.973l-2.762 4.285-20.25 31.43L34.788 96H57.79zm176.385-75.56l.005.006c9.657 12.515 14.597 30.826 14.597 55.154 0 24.461-4.937 43.212-14.618 56.44-9.619 13.006-23.492 19.55-41.842 19.55-18.203 0-32.082-6.54-41.845-19.553-9.68-13.229-14.615-31.91-14.615-56.227 0-24.47 4.941-42.85 14.598-55.364C160.211 7.846 174.093 1.5 192.317 1.5c18.37 0 32.245 6.35 41.858 18.94zm-28.911 87.837l.004-.011c2.624-6.852 3.879-17.728 3.879-32.456 0-14.711-1.25-25.339-3.896-31.66-1.327-3.17-3.054-5.667-5.238-7.374-2.205-1.724-4.793-2.576-7.696-2.576-2.903 0-5.491.852-7.696 2.576-2.184 1.707-3.911 4.204-5.238 7.375-2.645 6.32-3.896 16.948-3.896 31.659 0 14.728 1.255 25.604 3.879 32.456l.004.011c1.319 3.37 3.035 6.027 5.212 7.849 2.204 1.843 4.805 2.764 7.735 2.764 2.93 0 5.531-.921 7.735-2.764 2.177-1.822 3.893-4.479 5.212-7.849zM334.144 4.02h33.831V96h18.27v30.18h-18.27v22.89h-40.05v-22.89h-57.75V97.066L334.144 4.02zM326.425 96h1.5V59.611l-2.747 4.112-20.005 29.944L303.614 96h22.811z" stroke="#73DDCF" stroke-width="3"/></svg>
